speaky-school/img/arrow.svg

<svg width="112" height="133" viewBox="0 0 112 133" fill="none" xmlns="http://www.w3.org/2000/svg"><path d="M98.7858 114.475C98.9826 114.669 99.2992 114.666 99.4929 114.47L102.65 111.263C102.844 111.066 102.841 110.749 102.644 110.556C102.448 110.362 102.131 110.364 101.937 110.561L99.1311 113.412L96.2805 110.606C96.0838 110.412 95.7672 110.414 95.5735 110.611C95.3797 110.808 95.3822 111.124 95.579 111.318L98.7858 114.475ZM0.658231 27.2306C46.924 27.5949 98.2108 59.8465 98.6366 114.123L99.6366 114.115C99.2049 59.0954 47.2571 26.5975 0.666102 26.2306L0.658231 27.2306Z" fill="#676767"/></svg>

<svg width="112" height="133" fill="none" xmlns="http://www.w3.org/2000/svg"><path d="M98.786 114.475a.5.5 0 0 0 .707-.005l3.157-3.207a.5.5 0 1 0-.713-.702l-2.806 2.851-2.85-2.806a.5.5 0 1 0-.702.712l3.207 3.157zM.658 27.231c46.266.364 97.553 32.615 97.979 86.892l1-.008c-.432-55.02-52.38-87.517-98.97-87.884l-.009 1z" fill="#676767"/></svg>
